symbolic/64x64/apps/pymol.svg

<svg xmlns="http://www.w3.org/2000/svg" width="64" height="64" version="1">
 <rect style="fill:#3f3f3f" width="52" height="52" x="-58" y="-58" rx="15.6" ry="15.6" transform="matrix(0,-1,-1,0,0,0)"/>
 <path style="opacity:0.2" d="M 20.800782,5 C 11.493581,5 4,12.493581 4,21.800782 V 44.199218 C 4,53.506418 11.493581,61 20.800782,61 H 43.199218 C 52.506418,61 60,53.506418 60,44.199218 V 21.800782 C 60,12.493581 52.506418,5 43.199218,5 Z m 0,8 H 43.199218 C 48.212348,13 52,16.78765 52,21.800782 V 44.199218 C 52,49.212348 48.212348,53 43.199218,53 H 20.800782 C 15.78765,53 12,49.212348 12,44.199218 V 21.800782 C 12,16.787649 15.787649,13 20.800782,13 Z"/>
 <path style="opacity:0.1;fill:#ffffff" d="M 20.8,4 C 11.4928,4 4,11.4928 4,20.8 v 1.4 C 4,12.8928 11.4928,5.4 20.8,5.4 H 43.2 C 52.5072,5.4 60,12.8928 60,22.2 V 20.8 C 60,11.4928 52.5072,4 43.2,4 Z"/>
 <circle style="fill:#ffd517" class="st6" cx="15.7" cy="48.3" r="6.3"/>
 <circle style="opacity:0.2" class="st9" cx="44" cy="29" r="6"/>
 <circle style="fill:#ffd517" class="st9" cx="44" cy="28" r="6"/>
 <path style="fill:none;stroke:#7c7c7c;stroke-width:4.19999981;stroke-linecap:round" d="m 20.267426,44.871904 7.321708,-5.411698"/>
 <path style="fill:none;stroke:#7c7c7c;stroke-width:4.19999981;stroke-linecap:round" d="m 35.394922,33.869316 6.08851,-4.059008"/>
 <circle style="opacity:0.2" class="st13" cx="32" cy="37" r="8"/>
 <circle style="fill:#b3e5fc" class="st13" cx="32" cy="36" r="8"/>
 <path style="fill:none;stroke:#7c7c7c;stroke-width:4.19999981;stroke-linecap:round" d="m 23.000002,15.000393 5.41433,13.535823"/>
 <path style="fill:#4c6378" d="M 20.800782,4 C 11.493581,4 4,11.493581 4,20.800782 V 43.199218 C 4,52.506418 11.493581,60 20.800782,60 H 43.199218 C 52.506418,60 60,52.506418 60,43.199218 V 20.800782 C 60,11.493581 52.506418,4 43.199218,4 Z m 0,8 H 43.199218 C 48.212348,12 52,15.78765 52,20.800782 V 43.199218 C 52,48.212348 48.212348,52 43.199218,52 H 20.800782 C 15.78765,52 12,48.212348 12,43.199218 V 20.800782 C 12,15.787649 15.787649,12 20.800782,12 Z"/>
 <path style="opacity:0.1;fill:#ffffff" d="M 20.800781 4 C 11.493579 4 4 11.493579 4 20.800781 L 4 21.800781 C 4 12.493579 11.493579 5 20.800781 5 L 43.199219 5 C 52.506419 5 60 12.493579 60 21.800781 L 60 20.800781 C 60 11.493579 52.506419 4 43.199219 4 L 20.800781 4 z M 12 43.199219 L 12 44.199219 C 12 49.212349 15.787648 53 20.800781 53 L 43.199219 53 C 48.212349 53 52 49.212349 52 44.199219 L 52 43.199219 C 52 48.212349 48.212349 52 43.199219 52 L 20.800781 52 C 15.787648 52 12 48.212349 12 43.199219 z"/>
 <circle style="opacity:0.2" class="st19" cx="23" cy="16" r="7"/>
 <circle style="fill:#ffd517" class="st19" cx="23" cy="15" r="7"/>
 <circle style="opacity:0.2" class="st17" cx="47.001" cy="50" r="7"/>
 <circle style="fill:#ffd517" class="st17" cx="47.001" cy="49" r="7"/>
 <path style="opacity:0.2;fill:#ffffff" d="M 23 8 A 7 7 0 0 0 16 15 A 7 7 0 0 0 16.025391 15.4375 A 7 7 0 0 1 23 9 A 7 7 0 0 1 29.974609 15.492188 A 7 7 0 0 0 30 15 A 7 7 0 0 0 23 8 z M 44 22 A 6 6 0 0 0 38 28 A 6 6 0 0 0 38.027344 28.484375 A 6 6 0 0 1 44 23 A 6 6 0 0 1 49.976562 28.513672 A 6 6 0 0 0 50 28 A 6 6 0 0 0 44 22 z M 47 42 A 7 7 0 0 0 40 49 A 7 7 0 0 0 40.025391 49.4375 A 7 7 0 0 1 47 43 A 7 7 0 0 1 53.974609 49.492188 A 7 7 0 0 0 54 49 A 7 7 0 0 0 47 42 z"/>
 <path style="fill:none;stroke:#7c7c7c;stroke-width:4.19999981;stroke-linecap:round" d="m 37.053196,40.860912 4.917252,4.023204"/>
</svg>

<svg xmlns="http://www.w3.org/2000/svg" width="64" height="64" version="1"><rect style="fill:#3f3f3f" width="52" height="52" x="-58" y="-58" rx="15.6" ry="15.6" transform="matrix(0 -1 -1 0 0 0)"/><path style="opacity:.2" d="M20.8 5C11.495 5 4 12.494 4 21.8v22.4C4 53.505 11.494 61 20.8 61h22.4C52.505 61 60 53.506 60 44.2V21.8C60 12.495 52.506 5 43.2 5zm0 8h22.4c5.012 0 8.8 3.788 8.8 8.8v22.4c0 5.012-3.788 8.8-8.8 8.8H20.8c-5.012 0-8.8-3.788-8.8-8.8V21.8c0-5.012 3.788-8.8 8.8-8.8z"/><path style="opacity:.1;fill:#fff" d="M20.8 4C11.493 4 4 11.493 4 20.8v1.4c0-9.307 7.493-16.8 16.8-16.8h22.4c9.307 0 16.8 7.493 16.8 16.8v-1.4C60 11.493 52.507 4 43.2 4z"/><circle style="fill:#ffd517" class="st6" cx="15.7" cy="48.3" r="6.3"/><circle style="opacity:.2" class="st9" cx="44" cy="29" r="6"/><circle style="fill:#ffd517" class="st9" cx="44" cy="28" r="6"/><path style="fill:none;stroke:#7c7c7c;stroke-width:4.19999981;stroke-linecap:round" d="m20.267 44.872 7.322-5.412M35.395 33.87l6.088-4.06"/><circle style="opacity:.2" class="st13" cx="32" cy="37" r="8"/><circle style="fill:#b3e5fc" class="st13" cx="32" cy="36" r="8"/><path style="fill:none;stroke:#7c7c7c;stroke-width:4.19999981;stroke-linecap:round" d="m23 15 5.414 13.536"/><path style="fill:#4c6378" d="M20.8 4C11.495 4 4 11.494 4 20.8v22.4C4 52.505 11.494 60 20.8 60h22.4C52.505 60 60 52.506 60 43.2V20.8C60 11.495 52.506 4 43.2 4zm0 8h22.4c5.012 0 8.8 3.788 8.8 8.8v22.4c0 5.012-3.788 8.8-8.8 8.8H20.8c-5.012 0-8.8-3.788-8.8-8.8V20.8c0-5.012 3.788-8.8 8.8-8.8z"/><path style="opacity:.1;fill:#fff" d="M20.8 4C11.495 4 4 11.494 4 20.8v1C4 12.495 11.494 5 20.8 5h22.4C52.505 5 60 12.494 60 21.8v-1C60 11.495 52.506 4 43.2 4H20.8zM12 43.2v1c0 5.012 3.788 8.8 8.8 8.8h22.4c5.012 0 8.8-3.788 8.8-8.8v-1c0 5.012-3.788 8.8-8.8 8.8H20.8c-5.012 0-8.8-3.788-8.8-8.8z"/><circle style="opacity:.2" class="st19" cx="23" cy="16" r="7"/><circle style="fill:#ffd517" class="st19" cx="23" cy="15" r="7"/><circle style="opacity:.2" class="st17" cx="47.001" cy="50" r="7"/><circle style="fill:#ffd517" class="st17" cx="47.001" cy="49" r="7"/><path style="opacity:.2;fill:#fff" d="M23 8a7 7 0 0 0-7 7 7 7 0 0 0 .025.438A7 7 0 0 1 23 9a7 7 0 0 1 6.975 6.492A7 7 0 0 0 30 15a7 7 0 0 0-7-7zm21 14a6 6 0 0 0-6 6 6 6 0 0 0 .027.484A6 6 0 0 1 44 23a6 6 0 0 1 5.977 5.514A6 6 0 0 0 50 28a6 6 0 0 0-6-6zm3 20a7 7 0 0 0-7 7 7 7 0 0 0 .025.438A7 7 0 0 1 47 43a7 7 0 0 1 6.975 6.492A7 7 0 0 0 54 49a7 7 0 0 0-7-7z"/><path style="fill:none;stroke:#7c7c7c;stroke-width:4.19999981;stroke-linecap:round" d="m37.053 40.86 4.917 4.024"/></svg>
